X:857
T: Cserebogár ne ödd meg a csörösznyét
L:1/4
M:4/4
K:G
D/G/F/G/ B/A/E/F/ | A<G G z |
B/d/^c/d/ e/B/d/=c/ | B<A A z |
B/d/^c/d/ e/B/d/=c/ | B A/G/ F/E/ D/ z/ |
D/G/F/G/ B/A/E/F/ | A<G G z |

